X:1
T:The Armstrongs - First Man
T:The Armstrongs - First Man
T:Justin Hurwitz
C:Justin Hurwitz
%%score { 1 | 2 }
L:1/8
M:6/8
K:Bb
V:1 treble nm="Piano" snm="Pno."
V:2 bass 
V:1
|: GB,G GB,D | AB,D GB,G | GB,G GB,D | AB,D GB,G | GCG GCE | dEG cEB | ACA ACF | BCF ACG | %8
 GB,G GB,D | AB,D GB,G | GB,G GB,D | AB,D GB,G | GCG GCE | dEG cEB | ACA ACF | BCF ACB | BEB BEG | %17
 fGB eGd | ADA ADF | fFA eFd | BEB BEG | fGB eGd | ADA ADF | fFA eFd | gBg gBe | bBe aBg | %26
 gBg gBd | bBd aBg | gBg gBe | bBe aBg | gBg gBd | bag fed | ADA ADF | fFA eFd | BEB BEG | %35
 fGB eGd | ADA ADF | fFA eFd | BEB BEG | BCF ACG :| GB,G GB,D | AB,D GB,G | GB,G GB,D | AB,D GB,G | %44
 GB,G GB,D | AB,D GB,G | GB,G GB,D | AB,D GDB, | G,6 |] %49
V:2
|: G,,3 D,3 | G,3 D,3 | G,,3 D,3 | G,3 D,3 | C,3 G,3 | C3 G,3 | F,,3 C,3 | F,3 C,3 | G,,3 D,3 | %9
 G,3 D,3 | G,,3 D,3 | G,3 D,3 | C,3 G,3 | C3 G,3 | F,,3 C,3 | F,3 C,3 | E,3 B,3 | E3 B,3 | %18
 D,3 A,3 | D3 A,3 | E,3 B,3 | E3 B,3 | D,3 A,3 | D3 A,3 | E,3 B,3 | E3 B,3 | G,,3 D,3 | G,3 D,3 | %28
 E,3 B,3 | E3 B,3 | G,3 D3 | G3 D3 | D,3 A,3 | D3 A,3 | E,3 B,3 | E3 B,3 | D,3 A,3 | D3 A,3 | %38
 E,,3 B,,3 | F,,3 C,3 :| G,,3 D,3 | G,3 D,3 | G,,3 D,3 | G,3 D,3 | G,,3 D,3 | G,3 D,3 | G,,3 D,3 | %47
 G,3 D,3 | G,,6 |] %49

